X:1
T:To Victory!
T:To Victory!
T:George Crawford Hugg
T:Roy E. Mooar, 1898
T:Public Domain Courtesy of the Cyber Hymnal™
C:George Crawford Hugg
Z:Public Domain
Z:Courtesy of the Cyber Hymnal™
%%score ( 1 2 ) ( 3 4 )
L:1/8
Q:1/4=108
M:4/4
K:Ab
V:1 treble 
V:2 treble 
V:3 bass 
V:4 bass 
V:1
 E2 | [Ec]2 [Ec]2 [Ec]2 ([Fd][Ec]) | [DB]2 [DB]2 [DB]2 E2 | [DB]2 [DB]2 [DB]2 ([Ec][DB]) | %4
w: 1.~We’re|march- ing for- ward *|brave and strong, We’re|fight- ing ev- er *|
w: 2.~The|sins with- in, and *|those with- out, We’re|pledged to con- quer *|
w: 3.~Faith|is our shield, pro- *|tect- ing, true, Hope|gives us ev- er *|
 [CA]2 [CA]2 [CA]2 E2 | [Ec]2 [Ec]2 [_Gc]2 (Bc) | [Fd]2 [Fd]2 [DF]4 | [CE]4 [Ec]3 [Ec] | %8
w: ’gainst the wrong; Our|watch- word grand shall *|be our song,|On, on, for|
w: and to rout; They|fall as we our *|war cry shout,|On, on for|
w: strength a- new, The|love of God will *|bring us through,|On, on for|
 [DB]2 [CA]4 z2 |:"^Refrain" [Ec]2 [Ec]2 [Ec]2 [Ec]2 | [Ee]4 B4 | [CA]2 [CA]2 [CA]2 [CA]2 | %12
w: Je- sus!||||
w: Je- sus!|On with fly- ing|ban- ners!|On with glad ho-|
w: Je- sus!||||
 [=Ec]4 [EG]4 | [DF]2 [DF]2 [DA]2 (GF) | [CE]2 [CA]2 [Ec]4 |1 [Ec][DB][CA][Ec] [EB]2 [=DB]2 | %16
w: ||||
w: san- nas!|Je- sus Christ is *|lead- ing on,|Lead- ing on to vic- to-|
w: ||||
 (B4 d4) :|2 [Ec][DB][CA][Ec] [DB]2 [DB]2 || [CA]6 |] %19
w: |||
w: ry, *|Lead- ing on to vic- to-|ry,|
w: |||
V:2
 E2 | x8 | x6 E2 | x8 | x6 E2 | x6 _G2 | x8 | x8 | x8 |: x8 | x4 (E2 D2) | x8 | x8 | x6 D2 | x8 |1 %15
 x8 | E8 :|2 x8 || x6 |] %19
V:3
 E,2 | [A,,A,]2 [A,,A,]2 [A,,A,]2 [A,,A,]2 | [E,G,]2 [E,G,]2 [E,G,]2 E,2 | %3
 [E,G,]2 [E,G,]2 [E,G,]2 [E,G,]2 | [A,,E,]2 [A,,E,]2 [A,,E,]2 E,2 | %5
 [A,,A,]2 [A,,A,]2 [A,,A,]2 [A,,A,]2 | [D,A,]2 [D,A,]2 [D,A,]4 | [E,A,]4 [E,A,]3 [E,A,] | %8
 [E,G,]2 [A,,E,A,]4 z2 |: [A,,A,]2 [C,A,]2 [E,A,]2 A,2 | [E,G,]4 [E,G,]4 | %11
 [F,,A,]2 [A,,A,]2 [C,A,]2 [F,A,]2 | [C,G,]4 (C2 B,2) | [D,A,]2 [D,A,]2 [D,F,]2 [D,A,]2 | %14
 [A,,A,]2 [A,,E,]2 [A,,A,]4 |1 [A,,A,][A,,A,][A,,A,][A,,A,] [E,G,]2 (F,A,) | (G,4 B,4) :|2 %17
 [A,,A,][A,,A,][A,,A,][A,,A,] [E,G,]2 E,2 || [A,,E,]6 |] %19
V:4
 E,2 | x8 | x6 E,2 | x8 | x6 E,2 | x8 | x8 | x8 | x8 |: x6 A,2 | x8 | x8 | x4 C,4 | x8 | x8 |1 %15
 x6 B,,2 | E,8 :|2 x6 E,2 || x6 |] %19

